X:1406
T:Pip, å nu bränte je mej,
T:Halling efter Gustaf Johannesson
R:Halling
S:efter Gustaf Johannesson
O:Bohuslän
N:Från [[http://www.granquist.de/bohus1/hallpip.pdf|Granquist]].
M: 2/4
L: 1/16
K: A
|:[a4A4] e2>(g2 | f2)(df) e4 | A2(cd) e2(eg) | f2d2 e4 | a4 e2>g2 |
f2df e4 | A2cd e2eg | f2d2 e2>g2 | f2d2 e4 :|
|:a4 e2>g2 | fded cdeg | fded cdeg |fded cdeg | fdec A4 | 
a4 e2>g2 | f2df e2>c2 | A2cd e2eg | f2d2 e2>g2 | fdec A4:| 
(:musicend:)

(:music:)
